X:1
T:Etude No.10 Op.60
T:Matteo Carcassi (1792 -1853)
%%score ( 1 2 )
L:1/8
Q:1/8=138
M:3/8
K:D
V:1 treble-8 nm="Classical Guitar"
V:2 treble-8 
V:1
"^All.tto""^V""_" [fa] (3([fa]/!4!b/a/) (3([fa]/b/a/) | [fa]!2!!3![df][df] | %2
"^VII" [gb] (3([gb]/c'/b/) (3([gb]/c'/b/) | [gb]!3!!2![eg][eg] | %4
"^III" [eg] (3([eg]/a/g/) (3([eg]/a/g/) | [eg]!4!!3![ce][ce] | %6
"^V" [fa] (3([fa]/b/a/) (3([fa]/b/a/) | [fa][df][df] | %8
"^III" [d^g]"_cresc." (3([dg]/a/g/) (3([dg]/a/g/) | [d^g][db][db] | %10
"^V""_" [ca] (3([ca]/b/a/) (3([ca]/b/a/) | [ca][ec'][ec'] | %12
"^VII" [db] (3([db]/c'/b/) (3([db]/c'/b/) | [db]d'!2![d^g] |"^V" [ca] (3([ca]/b/a/) (3([ca]/b/a/) | %15
 [ca]2 x ::"^III""_" [eg] (3([eg]/a/g/) (3([eg]/a/g/) | [eg][ce][ce] | %18
"^V" [fa] (3([fa]/b/a/) (3([fa]/b/a/) | [fa][df][df] |"^VII" [gb] (3([gb]/c'/b/) (3([gb]/c'/b/) | %21
 [gb][eg][eg] |"^III" [eg] (3([eg]/a/g/) (3([eg]/a/g/) | [eg][ce][ce] | %24
 [df] (3([df]/g/f/) (3([df]/g/f/) | [df][fa][fa] | [eg] (3([eg]/a/g/) (3([eg]/a/g/) | %27
 [eg][gb][gb] | [ce] (3([ce]/f/e/) (3([ce]/f/e/) | [ce][eg][eg] | %30
 [df] (3([df]/g/f/) (3([df]/g/f/) | [df][fa][fa] | %32
"^VIII""_" [a=c'] (3([ac']/d'/c'/) (3([ac']/d'/c'/) | [a=c'][fa][fa] | %34
"^X" [bd'] (3([bd']/e'/d'/) (3([bd']/e'/d'/) | [bd']"^VII"[gb][gb] | %36
"^V""_" [fa] (3([fa]/b/a/)[fa] |"^VIII" [gc'] (3([gc']/d'/c'/)[gc'] | %38
"^X" [fd'] (3([fd']/e'/d'/) (3([fd']/e'/d'/) | [fd']2 x :| %40
V:2
 D3 | D3 | D3 | D3 | D3 | D3 | D3 | D3 | E,3 | E,3 | A,3 | A,3 | D3 | D2 E, | A,3 | A,2 z :: A,3 | %17
 A,3 | A,3 | A,3 | A,3 | A,3 | A,3 | A,3 | D3 | D3 | D3 | D3 | D3 | D3 | D3 | D3 | D3 | D3 | G3 | %35
 G3 | A,3 | A,3 | D3 | D2 z :| %40

